assets/svg/premium_emoji_tg.svg

<svg width="50" height="50" viewBox="0 0 50 50" fill="none" xmlns="http://www.w3.org/2000/svg">
<path d="M39.4707 3.65723C36.2106 1.71596 31.7056 1.99813 26.7164 4.94392C16.8143 10.8017 8.80717 25.0003 8.84025 36.6593C8.8623 42.4494 10.8557 46.5238 14.072 48.4426L10.5328 46.3308C7.31648 44.412 5.32283 40.3376 5.30105 34.5475C5.26771 22.8884 13.2751 8.68979 23.1772 2.83203C28.1664 -0.113769 32.6714 -0.384637 35.9315 1.55663L39.4707 3.65723Z" fill="#FFD63C"/>
<path d="M14.0715 48.751C14.02 48.751 13.9682 48.7375 13.9204 48.7092C13.9197 48.7088 13.9186 48.7081 13.9179 48.7077L10.3816 46.5973C6.93274 44.5401 5.02142 40.261 5.00011 34.5487C4.96629 22.8127 13.053 8.46496 23.0264 2.56512C27.9477 -0.340729 32.5837 -0.794592 36.0829 1.28979L39.6008 3.37793C39.6074 3.38208 39.6144 3.38622 39.621 3.38999L39.6218 3.39036C39.7655 3.47586 39.8147 3.66494 39.7313 3.81221C39.6479 3.9591 39.4644 4.00995 39.3196 3.92445C39.3193 3.92407 39.3182 3.92332 39.3174 3.92294L39.3009 3.91315C36.0046 1.96173 31.5898 2.42237 26.8667 5.21146C17.0601 11.0122 9.1087 25.1197 9.14141 36.6587C9.16236 42.1431 10.9671 46.2335 14.2233 48.1759C14.367 48.2618 14.4159 48.4505 14.3321 48.5977C14.2762 48.6964 14.1752 48.751 14.0715 48.751ZM31.2171 0.618221C28.8052 0.618221 26.1194 1.45099 23.3274 3.09959C13.5205 8.90075 5.56909 23.0078 5.60217 34.5468C5.62275 40.0308 7.42784 44.1213 10.6844 46.064L11.4096 46.4968C9.55565 44.1634 8.55515 40.786 8.53935 36.6606C8.5059 24.9242 16.5926 10.5765 26.5656 4.677C30.1361 2.56851 33.5533 1.74629 36.4957 2.24798L35.7804 1.8235C34.4281 1.01822 32.888 0.618221 31.2171 0.618221Z" fill="black"/>
<path d="M26.7151 4.94412C36.6236 -0.918046 44.6665 3.78693 44.6988 15.4457C44.731 27.0963 36.7404 41.3037 26.8319 47.1658C16.9306 53.0237 8.87353 48.3105 8.8413 36.66C8.80904 25.0012 16.8138 10.802 26.7151 4.94412Z" fill="white"/>
<path d="M36.1369 2.51134C41.4125 9.51081 42.5232 19.8791 38.1917 29.1662C32.7271 40.8887 20.5099 46.773 9.93668 43.2333C12.4576 49.8573 19.0885 51.7464 26.8297 47.1712C36.7367 41.2986 44.7334 27.0949 44.7003 15.4405C44.678 7.8492 41.2571 3.20572 36.1369 2.51134Z" fill="#E9EDF4"/>
<path d="M18.7917 50C17.0285 50.0004 15.3973 49.5785 13.9561 48.7288C10.4793 46.6783 8.55626 42.3928 8.54045 36.6606C8.50774 24.9242 16.5933 10.5761 26.5645 4.677C31.4685 1.77567 36.0935 1.31352 39.5901 3.37417C43.0629 5.42201 44.9841 9.70904 44.9999 15.445C45.0322 27.1863 36.9496 41.5363 26.9824 47.4328C24.0997 49.1386 21.3113 50 18.7917 50ZM34.7615 2.72369C32.3474 2.72369 29.659 3.55873 26.8659 5.21109C17.0612 11.0122 9.11054 25.1193 9.14252 36.6591C9.15759 42.1615 10.9737 46.258 14.2564 48.194C17.5622 50.1424 21.9752 49.6829 26.681 46.8987C36.4817 41.1001 44.4294 26.9908 44.3978 15.4465C44.3824 9.93992 42.5685 5.84273 39.2898 3.90901C37.946 3.11691 36.4181 2.72369 34.7615 2.72369Z" fill="black"/>
<path d="M26.85 12.76C33.1055 9.05916 38.193 12.0302 38.2133 19.3959C38.2337 26.7693 33.1793 35.7329 26.9238 39.4337C20.6684 43.1346 15.5742 40.1753 15.5538 32.8019C15.5334 25.4362 20.5946 16.4609 26.85 12.76Z" fill="#FFD63C"/>
<path d="M38.2112 19.3955C38.2317 26.7679 33.1793 35.7366 26.9276 39.4333C21.6291 42.5629 17.1709 40.935 15.9104 35.894C16.0232 35.9571 16.1358 36.0202 16.2487 36.0831C21.8136 39.0551 29.213 35.7681 32.7692 28.7528C36.0897 22.2205 34.9009 14.7537 30.2276 11.3721C34.8394 10.3323 38.1907 13.4199 38.2112 19.3955Z" fill="#F4C531"/>
<path d="M21.8348 41.3416C20.7019 41.3416 19.6525 41.0704 18.7256 40.5235C16.4963 39.2086 15.2628 36.4666 15.2528 32.8026C15.2319 25.3502 20.3671 16.2394 26.6994 12.4929C29.8332 10.6394 32.7939 10.3475 35.0397 11.6721C37.2705 12.9878 38.5044 15.7302 38.5143 19.395C38.5352 26.8474 33.4034 35.9566 27.0747 39.7009C25.2318 40.7913 23.4483 41.3416 21.8348 41.3416ZM27.0008 13.0269C20.8346 16.6752 15.8347 25.5456 15.8549 32.801C15.8645 36.2357 16.9907 38.7883 19.0262 39.9887C21.0794 41.2 23.8306 40.9077 26.7733 39.1668C32.9355 35.5208 37.9324 26.6519 37.9122 19.3965C37.9027 15.9614 36.7761 13.4081 34.7394 12.207C32.6888 10.9987 29.9398 11.2895 27.0008 13.0269Z" fill="black"/>
<path d="M31.4417 25.0581C31.8642 24.8081 32.1972 25.0453 32.1323 25.5747C31.7664 28.8016 29.5704 32.4137 26.9093 33.9881C25.4491 34.852 24.1257 34.9304 23.1691 34.3719C22.3821 33.9052 21.8417 33.0151 21.6691 31.7651C21.6012 31.3141 21.932 30.6843 22.3543 30.4344L31.4417 25.0581Z" fill="black"/>
<path d="M22.2075 23.2337C23.1669 22.6661 23.9479 23.1221 23.951 24.2518C23.9541 25.3744 23.1782 26.7515 22.2188 27.3191C21.2594 27.8867 20.4844 27.4271 20.4813 26.3045C20.4782 25.1749 21.2481 23.8013 22.2075 23.2337Z" fill="black"/>
<path d="M31.5424 17.7109C32.4957 17.1469 33.2827 17.5994 33.2858 18.7291C33.2889 19.8517 32.507 21.2323 31.5537 21.7964C30.5881 22.3676 29.8133 21.9079 29.8102 20.7853C29.8071 19.6557 30.5768 18.2822 31.5424 17.7109Z" fill="black"/>
</svg>

<svg xmlns="http://www.w3.org/2000/svg" width="50" height="50" fill="none" viewBox="0 0 50 50"><path fill="#ffd63c" d="M39.47 3.657c-3.26-1.941-7.764-1.659-12.754 1.287C16.814 10.802 8.807 25 8.84 36.659c.022 5.79 2.016 9.865 5.232 11.784l-3.54-2.112c-3.216-1.919-5.21-5.993-5.23-11.784C5.267 22.889 13.274 8.69 23.176 2.832c4.99-2.946 9.494-3.217 12.755-1.275z"/><path fill="#000" d="M14.072 48.751a.3.3 0 0 1-.152-.042l-.002-.001-3.536-2.11C6.932 44.54 5.022 40.26 5 34.547 4.966 22.814 13.053 8.466 23.026 2.566 27.948-.34 32.584-.795 36.083 1.29L39.6 3.378l.02.012a.313.313 0 0 1 .11.422.3.3 0 0 1-.414.11l-.016-.009c-3.296-1.951-7.711-1.49-12.434 1.298C17.06 11.012 9.109 25.12 9.14 36.66c.021 5.484 1.826 9.575 5.082 11.517a.313.313 0 0 1 .11.422.3.3 0 0 1-.261.153M31.217.618c-2.412 0-5.098.833-7.89 2.482C13.52 8.9 5.57 23.008 5.602 34.547c.02 5.484 1.826 9.574 5.082 11.517l.726.433c-1.854-2.334-2.855-5.711-2.87-9.836-.034-11.737 8.053-26.085 18.026-31.984 3.57-2.108 6.987-2.93 9.93-2.429l-.716-.425C34.428 1.019 32.888.618 31.217.618"/><path fill="#fff" d="M26.715 4.944C36.624-.918 44.667 3.787 44.7 15.446c.032 11.65-7.959 25.858-17.867 31.72C16.93 53.024 8.874 48.31 8.842 36.66c-.033-11.659 7.972-25.858 17.873-31.716"/><path fill="#e9edf4" d="M36.137 2.511c5.276 7 6.386 17.368 2.055 26.655C32.727 40.89 20.51 46.773 9.937 43.233c2.52 6.624 9.152 8.513 16.893 3.938 9.907-5.872 17.903-20.076 17.87-31.73-.022-7.592-3.443-12.235-8.563-12.93"/><path fill="#000" d="M18.792 50c-1.764 0-3.395-.422-4.836-1.271-3.477-2.05-5.4-6.336-5.416-12.068-.032-11.737 8.053-26.085 18.025-31.984 4.903-2.901 9.528-3.363 13.025-1.303C43.063 5.422 44.984 9.71 45 15.445c.032 11.741-8.05 26.091-18.018 31.988C24.1 49.139 21.312 50 18.792 50m15.97-47.276c-2.415 0-5.103.835-7.896 2.487C17.06 11.012 9.11 25.12 9.143 36.66c.015 5.502 1.83 9.599 5.113 11.535 3.306 1.948 7.72 1.489 12.425-1.295 9.8-5.799 17.748-19.908 17.717-31.452-.016-5.507-1.83-9.604-5.108-11.538-1.344-.792-2.872-1.185-4.529-1.185"/><path fill="#ffd63c" d="M26.85 12.76c6.255-3.7 11.343-.73 11.363 6.636.02 7.373-5.034 16.337-11.29 20.038-6.255 3.7-11.349.741-11.37-6.632-.02-7.366 5.042-16.341 11.297-20.042"/><path fill="#f4c531" d="M38.211 19.396c.02 7.372-5.032 16.34-11.283 20.037-5.299 3.13-9.757 1.502-11.018-3.539l.339.19c5.565 2.971 12.964-.316 16.52-7.331 3.32-6.532 2.132-14-2.541-17.38 4.611-1.04 7.963 2.047 7.983 8.022"/><path fill="#000" d="M21.835 41.342c-1.133 0-2.183-.272-3.11-.819-2.229-1.314-3.462-4.056-3.472-7.72-.021-7.453 5.114-16.564 11.446-20.31 3.134-1.854 6.095-2.145 8.34-.82 2.231 1.315 3.465 4.057 3.475 7.722.021 7.452-5.11 16.562-11.44 20.306-1.842 1.09-3.626 1.64-5.24 1.64M27 13.027C20.835 16.675 15.835 25.546 15.855 32.8c.01 3.435 1.136 5.987 3.171 7.188 2.053 1.211 4.805.919 7.747-.822 6.162-3.646 11.16-12.515 11.14-19.77-.01-3.436-1.137-5.989-3.174-7.19-2.05-1.208-4.8-.918-7.738.82"/><path fill="#000" d="M31.442 25.058c.422-.25.755-.013.69.517-.366 3.227-2.562 6.839-5.223 8.413-1.46.864-2.783.942-3.74.384-.787-.467-1.327-1.357-1.5-2.607-.068-.45.263-1.08.685-1.33zM22.208 23.234c.959-.568 1.74-.112 1.743 1.018.003 1.122-.773 2.5-1.732 3.067-.96.568-1.735.108-1.738-1.014-.003-1.13.767-2.504 1.726-3.071M31.542 17.71c.954-.563 1.74-.11 1.744 1.02.003 1.122-.779 2.502-1.732 3.066-.966.572-1.74.112-1.744-1.01-.003-1.13.767-2.504 1.732-3.075"/></svg>
